Newaita/actions/32/code-variable.svg

<svg height="32" viewBox="0 0 32 32" width="32" xmlns="http://www.w3.org/2000/svg"><g fill="#424242"><path d="m23.816406 16.125h2.644532c.730468 0 1.324218.59375 1.324218 1.324219v2.644531c0 .734375-.59375 1.324219-1.324218 1.324219h-2.644532c-.730468 0-1.324218-.589844-1.324218-1.324219v-2.644531c0-.730469.59375-1.324219 1.324218-1.324219zm0 0"/><path d="m4.628906 2.894531c-1.097656 0-1.984375.886719-1.984375 1.984375v7.941406c0 1.097657.886719 1.984376 1.984375 1.984376h22.492188c1.101562 0 1.984375-.886719 1.984375-1.984376v-7.941406c0-1.097656-.882813-1.984375-1.984375-1.984375zm1.324219 2.648438h19.847656c.363281 0 .660157.292969.660157.660156v5.292969c0 .367187-.296876.660156-.660157.660156h-19.847656c-.367187 0-.660156-.292969-.660156-.660156v-5.292969c0-.367187.292969-.660156.660156-.660156zm0 0"/><path d="m5.292969 16.125h2.644531c.730469 0 1.324219.59375 1.324219 1.324219v5.292969c0 .730468-.59375 1.324218-1.324219 1.324218h-2.644531c-.730469 0-1.324219-.59375-1.324219-1.324218v-5.292969c0-.730469.59375-1.324219 1.324219-1.324219zm0 0"/><path d="m14.554688 16.125h2.644531c.730469 0 1.324219.59375 1.324219 1.324219v10.585937c0 .730469-.59375 1.320313-1.324219 1.320313h-2.644531c-.730469 0-1.324219-.589844-1.324219-1.320313v-10.585937c0-.730469.59375-1.324219 1.324219-1.324219zm0 0"/></g></svg>

<svg xmlns="http://www.w3.org/2000/svg" xmlns:xlink="http://www.w3.org/1999/xlink" width="32px" height="32px" viewBox="0 0 32 32" version="1.1">
<g id="surface1">
     <defs>
  <style id="current-color-scheme" type="text/css">
   .ColorScheme-Text { color:#424242; } .ColorScheme-Highlight { color:#eeeeee; }
  </style>
 </defs>
<path style="fill:currentColor" class="ColorScheme-Text" d="M 23.816406 16.125 L 26.460938 16.125 C 27.191406 16.125 27.785156 16.71875 27.785156 17.449219 L 27.785156 20.09375 C 27.785156 20.828125 27.191406 21.417969 26.460938 21.417969 L 23.816406 21.417969 C 23.085938 21.417969 22.492188 20.828125 22.492188 20.09375 L 22.492188 17.449219 C 22.492188 16.71875 23.085938 16.125 23.816406 16.125 Z M 23.816406 16.125 "/>
     <defs>
  <style id="current-color-scheme" type="text/css">
   .ColorScheme-Text { color:#424242; } .ColorScheme-Highlight { color:#eeeeee; }
  </style>
 </defs>
<path style="fill:currentColor" class="ColorScheme-Text" d="M 4.628906 2.894531 C 3.53125 2.894531 2.644531 3.78125 2.644531 4.878906 L 2.644531 12.820312 C 2.644531 13.917969 3.53125 14.804688 4.628906 14.804688 L 27.121094 14.804688 C 28.222656 14.804688 29.105469 13.917969 29.105469 12.820312 L 29.105469 4.878906 C 29.105469 3.78125 28.222656 2.894531 27.121094 2.894531 Z M 5.953125 5.542969 L 25.800781 5.542969 C 26.164062 5.542969 26.460938 5.835938 26.460938 6.203125 L 26.460938 11.496094 C 26.460938 11.863281 26.164062 12.15625 25.800781 12.15625 L 5.953125 12.15625 C 5.585938 12.15625 5.292969 11.863281 5.292969 11.496094 L 5.292969 6.203125 C 5.292969 5.835938 5.585938 5.542969 5.953125 5.542969 Z M 5.953125 5.542969 "/>
     <defs>
  <style id="current-color-scheme" type="text/css">
   .ColorScheme-Text { color:#424242; } .ColorScheme-Highlight { color:#eeeeee; }
  </style>
 </defs>
<path style="fill:currentColor" class="ColorScheme-Text" d="M 5.292969 16.125 L 7.9375 16.125 C 8.667969 16.125 9.261719 16.71875 9.261719 17.449219 L 9.261719 22.742188 C 9.261719 23.472656 8.667969 24.066406 7.9375 24.066406 L 5.292969 24.066406 C 4.5625 24.066406 3.96875 23.472656 3.96875 22.742188 L 3.96875 17.449219 C 3.96875 16.71875 4.5625 16.125 5.292969 16.125 Z M 5.292969 16.125 "/>
     <defs>
  <style id="current-color-scheme" type="text/css">
   .ColorScheme-Text { color:#424242; } .ColorScheme-Highlight { color:#eeeeee; }
  </style>
 </defs>
<path style="fill:currentColor" class="ColorScheme-Text" d="M 14.554688 16.125 L 17.199219 16.125 C 17.929688 16.125 18.523438 16.71875 18.523438 17.449219 L 18.523438 28.035156 C 18.523438 28.765625 17.929688 29.355469 17.199219 29.355469 L 14.554688 29.355469 C 13.824219 29.355469 13.230469 28.765625 13.230469 28.035156 L 13.230469 17.449219 C 13.230469 16.71875 13.824219 16.125 14.554688 16.125 Z M 14.554688 16.125 "/>
</g>
</svg>
